X:96
T:RVW2/2/96 I've Lived In Service
C:Mrs. Verrall, Horsham, Susses, 24 May 1904
L:1/8
Q:1/4=90
M:6/8
I:linebreak $
K:C
"^(" x | cBA G2 d | cBA G2 G |$ ccc dgg | f d2 z z d | gfg dcd |$ GGG (cd)e | fge dcB | AG z z2 |] 
w: |li- vï¿½d in ser- vice|se- ven long years a|fan- cy I took to a|maid, sir. I|called her my je- wel but|I were a- fraid _ be-|cause she was de- li- cate|fair sir.|




